img/icon-sns-instagram-1@2x.svg

<svg fill="none" height="32" viewBox="0 0 32 32" width="32" xmlns="http://www.w3.org/2000/svg" xmlns:xlink="http://www.w3.org/1999/xlink"><linearGradient id="a" gradientUnits="userSpaceOnUse" x1="24.2957" x2="6.94579" y1="5.8341" y2="27.1039"><stop offset="0" stop-color="#ae3dae"/><stop offset=".0468721" stop-color="#b23ba6"/><stop offset=".1216" stop-color="#bd368e"/><stop offset=".2148" stop-color="#ce2e69"/><stop offset=".3216" stop-color="#e62335"/><stop offset=".418" stop-color="#ff1800"/></linearGradient><g opacity=".6"><path d="m27.933 11.0478c-.0576-1.27705-.264-2.15082-.5569-2.91417-.3072-.78736-.7153-1.4595-1.3827-2.12203-.6673-.66253-1.3346-1.08021-2.122-1.38267-.7633-.29766-1.6371-.4993-2.9142-.55692-1.2818-.05761-1.6899-.07201-4.945-.07201-3.2598 0-3.6679.0144-4.9449.07201-1.2771.05762-2.15087.26406-2.91423.55692-.79215.30726-1.46429.71534-2.12682 1.38267s-1.08022 1.33467-1.38268 2.12203c-.29285.76335-.4993 1.63712-.55691 2.91417-.05761 1.2819-.07201 1.6899-.07201 4.945 0 3.2598.0144 3.6679.07201 4.945.05761 1.277.26406 2.1508.55691 2.9142.30727.7873.71535 1.4595 1.38268 2.122.66253.6673 1.33467 1.0802 2.12202 1.3827.76336.2976 1.63713.4993 2.91423.5569 1.2818.0576 1.6899.072 4.9449.072 3.2599 0 3.668-.0144 4.945-.072 1.2771-.0576 2.1509-.2641 2.9142-.5569.7874-.3073 1.4595-.7154 2.122-1.3827.6626-.6673 1.0803-1.3347 1.3827-2.122.2977-.7634.4993-1.6372.5569-2.9142.0576-1.2819.072-1.69.072-4.945 0-3.2551-.0096-3.6679-.0672-4.945zm-2.1556 9.794c-.0528 1.1714-.2497 1.8099-.4129 2.2276-.216.5569-.4801.9602-.9026 1.3827s-.8209.6769-1.3826.9026c-.4225.1632-1.0611.36-2.2277.4128-1.2626.0577-1.6419.0721-4.849.0721-3.207 0-3.5863-.0144-4.8489-.0721-1.17146-.0528-1.80999-.2496-2.22767-.4128-.55691-.2161-.96019-.4801-1.38268-.9026-.42248-.4225-.67693-.821-.90258-1.3827-.16323-.4225-.36007-1.061-.41288-2.2276-.05761-1.2627-.07201-1.642-.07201-4.849s.0144-3.5863.07201-4.849c.05281-1.17141.24965-1.80993.41288-2.22762.21605-.55691.4801-.96019.90258-1.38267.42249-.42249.82097-.67694 1.38268-.90258.42248-.16324 1.06101-.36008 2.22767-.41289 1.2626-.05761 1.6419-.07201 4.8489-.07201 3.2071 0 3.5864.0144 4.849.07201 1.1714.05281 1.81.24965 2.2277.41289.5569.21604.9601.48009 1.3826.90258.4225.42248.677.82096.9026 1.38267.1632.42249.3601 1.06101.4129 2.22762.0576 1.2627.072 1.642.072 4.849s-.0192 3.5863-.072 4.849z" fill="url(#a)"/><g fill="#fff"><path d="m16.0018 9.82825c-3.4086 0-6.1644 2.76055-6.1644 6.16445 0 3.4087 2.7606 6.1644 6.1644 6.1644 3.4039 0 6.1645-2.7653 6.1645-6.1644 0-3.4087-2.7558-6.16445-6.1645-6.16445zm0 10.16365c-2.2084 0-3.9992-1.7908-3.9992-3.9992 0-2.2085 1.7908-3.9992 3.9992-3.9992 2.2085 0 3.9992 1.7907 3.9992 3.9992 0 2.2084-1.7907 3.9992-3.9992 3.9992z"/><path d="m22.4081 11.0285c.7954 0 1.4402-.6448 1.4402-1.44026 0-.79545-.6448-1.44029-1.4402-1.44029-.7955 0-1.4403.64484-1.4403 1.44029 0 .79546.6448 1.44026 1.4403 1.44026z"/><path d="m4 15.9928c0 3.2598.0144 3.6679.07201 4.945.05762 1.277.26406 2.1508.55692 2.9142.30726.7873.71534 1.4595 1.38267 2.122.66254.6625 1.33467 1.0802 2.12203 1.3827.76335.2976 1.63713.4993 2.91417.5569 1.2819.0576 1.6899.072 4.945.072 3.2599 0 3.6679-.0144 4.945-.072 1.277-.0576 2.1508-.2641 2.9142-.5569.7873-.3073 1.4595-.7154 2.122-1.3827.6625-.6625 1.0802-1.3347 1.3827-2.122.2976-.7634.4993-1.6372.5569-2.9142.0576-1.2819.072-1.69.072-4.945 0-3.2599-.0144-3.6679-.072-4.945-.0576-1.27705-.2641-2.15082-.5569-2.91417-.3073-.78736-.7154-1.4595-1.3827-2.12203-.6577-.66733-1.3299-1.08021-2.1172-1.38267-.7634-.29766-1.6372-.4993-2.9142-.55692-1.2819-.05761-1.6899-.07201-4.945-.07201-3.2599 0-3.6679.0144-4.945.07201-1.27704.05762-2.15082.26406-2.91417.55692-.78736.30726-1.45949.71534-2.12203 1.38267-.66253.66733-1.08021 1.33467-1.38267 2.12203-.29766.76335-.5041 1.63712-.56172 2.91417-.05761 1.2771-.07201 1.6851-.07201 4.945zm2.16523 0c0-3.2022.01441-3.5863.07202-4.849.05281-1.17141.24965-1.80993.41288-2.22762.21604-.55691.4801-.96019.90258-1.38267.42249-.42249.82097-.67694 1.38268-.90258.42248-.16324 1.06101-.36008 2.22761-.41289 1.2627-.05761 1.642-.07201 4.849-.07201s3.5863.0144 4.849.07201c1.1714.05281 1.8099.24965 2.2276.41289.5569.21604.9602.48009 1.3827.90258.4225.42248.6769.82096.9026 1.38267.1632.42249.36 1.06101.4129 2.22762.0576 1.2627.072 1.642.072 4.849s-.0144 3.5863-.072 4.849c-.0529 1.1714-.2497 1.8099-.4129 2.2276-.2161.5569-.4801.9602-.9026 1.3827s-.821.6769-1.3827.9026c-.4225.1632-1.061.36-2.2276.4128-1.2627.0577-1.642.0721-4.849.0721s-3.5863-.0144-4.849-.0721c-1.1714-.0528-1.80993-.2496-2.22761-.4128-.55691-.2161-.96019-.4801-1.38268-.9026-.42248-.4225-.67693-.821-.90258-1.3827-.16323-.4225-.36007-1.061-.41288-2.2276-.06241-1.2627-.07202-1.6468-.07202-4.849z"/></g></g></svg>

<svg width="32" height="32" viewBox="0 0 32 32" fill="none" xmlns="http://www.w3.org/2000/svg">
<g opacity="0.6">
<path d="M27.933 11.0478C27.8754 9.77075 27.669 8.89698 27.3761 8.13363C27.0689 7.34627 26.6608 6.67413 25.9934 6.0116C25.3261 5.34907 24.6588 4.93139 23.8714 4.62893C23.1081 4.33127 22.2343 4.12963 20.9572 4.07201C19.6754 4.0144 19.2673 4 16.0122 4C12.7524 4 12.3443 4.0144 11.0673 4.07201C9.7902 4.12963 8.91643 4.33607 8.15307 4.62893C7.36092 4.93619 6.68878 5.34427 6.02625 6.0116C5.36372 6.67893 4.94603 7.34627 4.64357 8.13363C4.35072 8.89698 4.14427 9.77075 4.08666 11.0478C4.02905 12.3297 4.01465 12.7377 4.01465 15.9928C4.01465 19.2526 4.02905 19.6607 4.08666 20.9378C4.14427 22.2148 4.35072 23.0886 4.64357 23.852C4.95084 24.6393 5.35892 25.3115 6.02625 25.974C6.68878 26.6413 7.36092 27.0542 8.14827 27.3567C8.91163 27.6543 9.7854 27.856 11.0625 27.9136C12.3443 27.9712 12.7524 27.9856 16.0074 27.9856C19.2673 27.9856 19.6754 27.9712 20.9524 27.9136C22.2295 27.856 23.1033 27.6495 23.8666 27.3567C24.654 27.0494 25.3261 26.6413 25.9886 25.974C26.6512 25.3067 27.0689 24.6393 27.3713 23.852C27.669 23.0886 27.8706 22.2148 27.9282 20.9378C27.9858 19.6559 28.0002 19.2478 28.0002 15.9928C28.0002 12.7377 27.9906 12.3249 27.933 11.0478ZM25.7774 20.8418C25.7246 22.0132 25.5277 22.6517 25.3645 23.0694C25.1485 23.6263 24.8844 24.0296 24.4619 24.4521C24.0394 24.8746 23.641 25.129 23.0793 25.3547C22.6568 25.5179 22.0182 25.7147 20.8516 25.7675C19.589 25.8252 19.2097 25.8396 16.0026 25.8396C12.7956 25.8396 12.4163 25.8252 11.1537 25.7675C9.98224 25.7147 9.34371 25.5179 8.92603 25.3547C8.36912 25.1386 7.96584 24.8746 7.54335 24.4521C7.12087 24.0296 6.86642 23.6311 6.64077 23.0694C6.47754 22.6469 6.2807 22.0084 6.22789 20.8418C6.17028 19.5791 6.15588 19.1998 6.15588 15.9928C6.15588 12.7858 6.17028 12.4065 6.22789 11.1438C6.2807 9.97239 6.47754 9.33387 6.64077 8.91618C6.85682 8.35927 7.12087 7.95599 7.54335 7.53351C7.96584 7.11102 8.36432 6.85657 8.92603 6.63093C9.34851 6.46769 9.98704 6.27085 11.1537 6.21804C12.4163 6.16043 12.7956 6.14603 16.0026 6.14603C19.2097 6.14603 19.589 6.16043 20.8516 6.21804C22.023 6.27085 22.6616 6.46769 23.0793 6.63093C23.6362 6.84697 24.0394 7.11102 24.4619 7.53351C24.8844 7.95599 25.1389 8.35447 25.3645 8.91618C25.5277 9.33867 25.7246 9.97719 25.7774 11.1438C25.835 12.4065 25.8494 12.7858 25.8494 15.9928C25.8494 19.1998 25.8302 19.5791 25.7774 20.8418Z" fill="url(#paint0_linear_1_1431)"/>
<path d="M16.0018 9.82825C12.5932 9.82825 9.8374 12.5888 9.8374 15.9927C9.8374 19.4014 12.598 22.1571 16.0018 22.1571C19.4057 22.1571 22.1663 19.3918 22.1663 15.9927C22.1663 12.584 19.4105 9.82825 16.0018 9.82825ZM16.0018 19.9919C13.7934 19.9919 12.0026 18.2011 12.0026 15.9927C12.0026 13.7842 13.7934 11.9935 16.0018 11.9935C18.2103 11.9935 20.001 13.7842 20.001 15.9927C20.001 18.2011 18.2103 19.9919 16.0018 19.9919Z" fill="white"/>
<path d="M22.4081 11.0285C23.2035 11.0285 23.8483 10.3837 23.8483 9.58824C23.8483 8.79279 23.2035 8.14795 22.4081 8.14795C21.6126 8.14795 20.9678 8.79279 20.9678 9.58824C20.9678 10.3837 21.6126 11.0285 22.4081 11.0285Z" fill="white"/>
<path d="M4 15.9928C4 19.2526 4.0144 19.6607 4.07201 20.9378C4.12963 22.2148 4.33607 23.0886 4.62893 23.852C4.93619 24.6393 5.34427 25.3115 6.0116 25.974C6.67414 26.6365 7.34627 27.0542 8.13363 27.3567C8.89698 27.6543 9.77076 27.856 11.0478 27.9136C12.3297 27.9712 12.7377 27.9856 15.9928 27.9856C19.2527 27.9856 19.6607 27.9712 20.9378 27.9136C22.2148 27.856 23.0886 27.6495 23.852 27.3567C24.6393 27.0494 25.3115 26.6413 25.974 25.974C26.6365 25.3115 27.0542 24.6393 27.3567 23.852C27.6543 23.0886 27.856 22.2148 27.9136 20.9378C27.9712 19.6559 27.9856 19.2478 27.9856 15.9928C27.9856 12.7329 27.9712 12.3249 27.9136 11.0478C27.856 9.77075 27.6495 8.89698 27.3567 8.13363C27.0494 7.34627 26.6413 6.67413 25.974 6.0116C25.3163 5.34427 24.6441 4.93139 23.8568 4.62893C23.0934 4.33127 22.2196 4.12963 20.9426 4.07201C19.6607 4.0144 19.2527 4 15.9976 4C12.7377 4 12.3297 4.0144 11.0526 4.07201C9.77556 4.12963 8.90178 4.33607 8.13843 4.62893C7.35107 4.93619 6.67894 5.34427 6.0164 6.0116C5.35387 6.67893 4.93619 7.34627 4.63373 8.13363C4.33607 8.89698 4.12963 9.77075 4.07201 11.0478C4.0144 12.3249 4 12.7329 4 15.9928ZM6.16523 15.9928C6.16523 12.7906 6.17964 12.4065 6.23725 11.1438C6.29006 9.97239 6.4869 9.33387 6.65013 8.91618C6.86617 8.35927 7.13023 7.95599 7.55271 7.53351C7.9752 7.11102 8.37368 6.85657 8.93539 6.63093C9.35787 6.46769 9.9964 6.27085 11.163 6.21804C12.4257 6.16043 12.805 6.14603 16.012 6.14603C19.219 6.14603 19.5983 6.16043 20.861 6.21804C22.0324 6.27085 22.6709 6.46769 23.0886 6.63093C23.6455 6.84697 24.0488 7.11102 24.4713 7.53351C24.8938 7.95599 25.1482 8.35447 25.3739 8.91618C25.5371 9.33867 25.7339 9.97719 25.7868 11.1438C25.8444 12.4065 25.8588 12.7858 25.8588 15.9928C25.8588 19.1998 25.8444 19.5791 25.7868 20.8418C25.7339 22.0132 25.5371 22.6517 25.3739 23.0694C25.1578 23.6263 24.8938 24.0296 24.4713 24.4521C24.0488 24.8746 23.6503 25.129 23.0886 25.3547C22.6661 25.5179 22.0276 25.7147 20.861 25.7675C19.5983 25.8252 19.219 25.8396 16.012 25.8396C12.805 25.8396 12.4257 25.8252 11.163 25.7675C9.9916 25.7147 9.35307 25.5179 8.93539 25.3547C8.37848 25.1386 7.9752 24.8746 7.55271 24.4521C7.13023 24.0296 6.87578 23.6311 6.65013 23.0694C6.4869 22.6469 6.29006 22.0084 6.23725 20.8418C6.17484 19.5791 6.16523 19.195 6.16523 15.9928Z" fill="white"/>
</g>
<defs>
<linearGradient id="paint0_linear_1_1431" x1="24.2957" y1="5.8341" x2="6.94579" y2="27.1039" gradientUnits="userSpaceOnUse">
<stop stop-color="#AE3DAE"/>
<stop offset="0.0468721" stop-color="#B23BA6"/>
<stop offset="0.1216" stop-color="#BD368E"/>
<stop offset="0.2148" stop-color="#CE2E69"/>
<stop offset="0.3216" stop-color="#E62335"/>
<stop offset="0.418" stop-color="#FF1800"/>
</linearGradient>
</defs>
</svg>
